X: 4
T: Drag Her Round The Road
R: reel
M: 4/4
L: 1/8
K: Gmaj
GA|:BEED E2DE|GEDB, DEGA|BEED E2DE|GABG ABGA|BEED E2DE|GEDB, DEGA|BEED E2DE|GABG ABGA:|||:G2GF GBdB|c2cB cedc|BcAB GBdB|cABG AGEF|G2GF GBdB|c2cB cedc|BcAB GBdB|cABG ABGA:||


Tune 1148	Setting 22048

